X:17
T:Hoijakka in D
M:3/4
L:1/16
Q:1/4=120
R:polska
K:D
|: "D" A^GAd f=gfe d2d2 | "A7" c3e gagf e2e2 |
"D" A3d fgfe d2d2 | "E7" ~c2B2 "A" A4 A4 :| !
|: "Em" gfga b2ba g2g2 | "D" fefg abag f2f2 | !
"A7" e^def gfe=d c2Ac |[1 efec "D" d4 e2f2 :|[2 efec "D" d4 d4 ||
